app/img/product/ic_quqlity.svg

<svg width="27" height="28" viewBox="0 0 27 28" fill="none" xmlns="http://www.w3.org/2000/svg">
    <path fill-rule="evenodd" clip-rule="evenodd"
          d="M13.5 0C12.9068 0 12.3086 0.181973 11.8057 0.548716L10.3937 1.58987C9.90084 1.94925 9.29612 2.14057 8.68529 2.13859L6.93449 2.12452C5.68789 2.12056 4.57655 2.92564 4.19533 4.10834L3.6588 5.78263C3.47192 6.3621 3.10939 6.86167 2.61396 7.21773L1.18791 8.24482C0.176874 8.97157 -0.24601 10.2725 0.143075 11.4527L0.69373 13.1129C0.884421 13.691 0.884421 14.3075 0.69373 14.8857L0.143075 16.56C-0.24601 17.7401 0.176957 19.027 1.18791 19.7538L2.61396 20.7809C3.10931 21.137 3.47208 21.6507 3.6588 22.23L4.19533 23.8903C4.57655 25.0729 5.68789 25.8783 6.93449 25.8741H8.68529C9.29612 25.8717 9.90076 26.0634 10.3937 26.4228L11.8057 27.4499C12.8118 28.1834 14.1881 28.1834 15.1943 27.4499L16.6062 26.4228C17.0991 26.0634 17.7039 25.872 18.3147 25.8741H20.0655C21.3122 25.8781 22.4234 25.0729 22.8046 23.8903L23.3412 22.23C23.5279 21.6507 23.8907 21.137 24.386 20.7809L25.8121 19.7538C26.823 19.027 27.2461 17.7401 26.8569 16.56L26.3062 14.8857C26.1156 14.3076 26.1156 13.691 26.3062 13.1129L26.8569 11.4527C27.2461 10.2725 26.823 8.97157 25.8121 8.24482L24.386 7.21773C23.8907 6.86159 23.5279 6.36202 23.3412 5.78263L22.8046 4.10834C22.4234 2.92564 21.3122 2.1204 20.0655 2.12452L18.3147 2.13859C17.7039 2.14096 17.0992 1.94925 16.6062 1.58987L15.1943 0.548716C14.73 0.210184 14.1846 0.0290892 13.6369 0.00323157L13.5 0ZM13.6054 3.27697C19.5944 3.27697 24.471 8.13646 24.471 14.1043C24.471 20.0722 19.5944 24.9317 13.6054 24.9317C7.61643 24.9317 2.73977 20.0722 2.73977 14.1043C2.73977 8.13646 7.61643 3.27697 13.6054 3.27697Z"
          fill="#022AF0"/>
    <path d="M8 13.5833L12.1491 18.1472C12.5834 18.6249 13.3498 18.5721 13.7143 18.0392L19.5 9.58325" stroke="#7CEA57"
          stroke-width="2.5" stroke-linecap="round"/>
</svg>

<svg width="27" height="28" fill="none" xmlns="http://www.w3.org/2000/svg"><path fill-rule="evenodd" clip-rule="evenodd" d="M13.5 0c-.593 0-1.191.182-1.694.549l-1.412 1.04c-.493.36-1.098.552-1.709.55l-1.75-.014a2.871 2.871 0 0 0-2.74 1.983L3.66 5.783a2.829 2.829 0 0 1-1.045 1.435L1.188 8.245a2.854 2.854 0 0 0-1.045 3.208l.55 1.66c.191.578.191 1.194 0 1.773l-.55 1.674a2.834 2.834 0 0 0 1.045 3.194l1.426 1.027c.495.356.858.87 1.045 1.449l.536 1.66a2.871 2.871 0 0 0 2.74 1.984h1.75c.611-.002 1.216.19 1.709.549l1.412 1.027a2.884 2.884 0 0 0 3.388 0l1.412-1.027a2.894 2.894 0 0 1 1.709-.549h1.75a2.871 2.871 0 0 0 2.74-1.984l.536-1.66c.187-.58.55-1.093 1.045-1.45l1.426-1.026a2.834 2.834 0 0 0 1.045-3.194l-.55-1.674a2.82 2.82 0 0 1 0-1.773l.55-1.66a2.854 2.854 0 0 0-1.045-3.208l-1.426-1.027a2.83 2.83 0 0 1-1.045-1.435l-.536-1.675a2.871 2.871 0 0 0-2.74-1.983l-1.75.014a2.893 2.893 0 0 1-1.709-.55L15.194.55a2.873 2.873 0 0 0-1.557-.546L13.5 0Zm.105 3.277c5.99 0 10.866 4.86 10.866 10.827 0 5.968-4.877 10.828-10.866 10.828S2.74 20.072 2.74 14.104c0-5.968 4.876-10.827 10.865-10.827Z" fill="#022AF0"/><path d="m8 13.583 4.15 4.564a1 1 0 0 0 1.564-.108L19.5 9.583" stroke="#7CEA57" stroke-width="2.5" stroke-linecap="round"/></svg>
